X:90
T: RUMME RUMME ROSENKRANZ
N: K2065
O: Europa, Mitteleuropa, Deutschland, Siegen
R: Kinder - Lied, Reigen, Tanz - Spiel
M: 2/4
L: 1/8
K: F
 | ccdd | ccA
A | ccdd | c2A
A | ccdd | c2A
A | ccdd | ccA2 |
ccdd | ccA2 | f4

@@@ Tune index: 7427
